storage/app/icons/phosphoricons/thin/chart-scatter-thin.svg

<svg xmlns="http://www.w3.org/2000/svg" fill="currentColor" viewBox="0 0 256 256"><path d="M228 208a4 4 0 0 1-4 4H32a4 4 0 0 1-4-4V48a4 4 0 0 1 8 0v156h188a4 4 0 0 1 4 4m-96-52a8 8 0 1 0-8-8 8 8 0 0 0 8 8m-24-56a8 8 0 1 0-8-8 8 8 0 0 0 8 8m-32 72a8 8 0 1 0-8-8 8 8 0 0 0 8 8m96-48a8 8 0 1 0-8-8 8 8 0 0 0 8 8m24-40a8 8 0 1 0-8-8 8 8 0 0 0 8 8m-8 88a8 8 0 1 0-8-8 8 8 0 0 0 8 8"/></svg>

<svg xmlns="http://www.w3.org/2000/svg" viewBox="0 0 256 256" fill="currentColor"><path d="M228,208a4,4,0,0,1-4,4H32a4,4,0,0,1-4-4V48a4,4,0,0,1,8,0V204H224A4,4,0,0,1,228,208Zm-96-52a8,8,0,1,0-8-8A8,8,0,0,0,132,156Zm-24-56a8,8,0,1,0-8-8A8,8,0,0,0,108,100ZM76,172a8,8,0,1,0-8-8A8,8,0,0,0,76,172Zm96-48a8,8,0,1,0-8-8A8,8,0,0,0,172,124Zm24-40a8,8,0,1,0-8-8A8,8,0,0,0,196,84Zm-8,88a8,8,0,1,0-8-8A8,8,0,0,0,188,172Z"/></svg>
